!!!COM: Felix Mendelssohn
!!!CNT: Deutsch
!!!TXO: Deutsch
!!!OTL: Bei der Wiege
!!!LYR: C. Klingemann
!!!OPS: Op. 47
!!!ONM: No. 6
!!!ENC: Daniel Alt & Leigh VanHandel
!!!YOR: Sa2mmtliche Lieder fu2r eine Singstimme 
!!!YOR: Neu revidirt von Dr. L. Benda, Ausgabe fu2r mittlere Stimme
!!!YOR: Braunschweig. Henry Litolff's Verlag. Boston and New York: Arthur P. Schmidt.
!!!ODT: 1833/
**kern	**silbe
*staff1	*
=1-	=1-
*clefG2	*
*k[b-e-]	*
*M6/8	*
2.r	.
=2	=2
2.r	.
=3	=3
{[4.dd	{Schlumm-
4dd]	|
8cc	|
=4	=4
4.b-}	-re!}
4r	.
8r	.
=5	=5
{8.f	{Schlumm-
16g	-re
8f	und
8f	tra2u-
8b-	-me
8dd	von
=6	=6
8ee-	kom-
8cc	-men-
8a	-der
4.f}	Zeit,}
=7	=7
{8dd	{die
8b-	sich
8a	dir
8g	bald
8cc	muss
8g	ent-
=8	=8
4.b-	-fal-
4a}	-ten,}
8r	.
=9	=9
{8b-	{tra2u-
8a	-me,
8g	mein
4dd	Kind,
8a	von
=10	=10
8b-	Freud'
8a	|
8g	und
[4.dd	Leid,
=11	=11
4dd]}	|}
8r	.
{8g	{tra2u-
8b-	-me
8dd	von
=12	=12
8dd	lie-
8g	-ben
8a	Ge-
4.b-	-stal-
=13	=13
4a}	-ten,}
8r	.
{8f	{tra2u-
8g	-me
8a	von
=14	=14
8cc	lie-
8b-	-ben
8a	Ge-
4a	-stal-
8g	|
=15	=15
4f}	-ten!}
8r	.
{8f	{Mo2-
8a	-gen
8cc	auch
=16	=16
8ff	vie-
8ee-	-le
8dd	noch
8dd	kom-
8cc	-men
8bn	und
=17	=17
4bn	ge-
8ccn}	-hen,}
{8e-	{mu2s-
8g	-sen
8cc	dir
=18	=18
8ee-	neue
8dd	|
8cc	doch
ccq	wie-
8b-	|
8a	-der
8b-	er-
=19	=19
4.dd	-ste-
4.cc}	-hen,}
=20	=20
2.r	.
=21	=21
{8f	{blei-
16f	-be
16f	nur
16f	fein
16f	ge-
8g	-dul-
4f}	-dig!}
=22	=22
2.r	.
=23	=23
{8f	{blei-
16f	-be
16f	nur
16f	fein
16f	ge-
8g	-dul-
4f}	-dig!}
=24	=24
2.r	.
=25	=25
{[4.b-	{blei-
8b-]	|
8a	|
8g	-be,
=26	=26
8f	blei-
8b-	-be
8dd	nur
4dd	fein
8cc	ge-
=27	=27
2.b-	-dul-
=28	=28
4.f}	-dig!}
4r	.
8r	.
=29	=29
{[4.dd	{Schlumm-
4dd]	|
8cc	|
=30	=30
4b-}	-re!}
8r	.
4r	.
8r	.
=31	=31
2.r	.
==	==
*-	*-